libs/ui/packages/crypto-icons/src/svg/AE.svg

<svg width="24" height="24" viewBox="0 0 24 24" fill="none">
<path d="M7.314 8.25H7.992C9.05175 8.3505 10.032 8.86575 10.7573 9.6075C12.264 11.1368 13.092 13.2945 15.0098 14.4323C16.3958 15.255 18.3345 14.5823 19.0155 13.1918C19.362 13.1858 19.7107 13.1858 20.0573 13.1873C19.5802 14.5995 18.1905 15.6143 16.671 15.75H16.1115C15.1763 15.675 14.2665 15.327 13.5592 14.7255C12.5318 13.8833 11.8717 12.7275 11.073 11.6985C10.386 10.7887 9.6855 9.76575 8.5485 9.3525C7.14375 8.84325 5.4285 9.63975 4.91625 10.9927C4.46625 12.1072 4.83225 13.4887 5.83875 14.2028C6.59325 14.7668 7.644 14.9775 8.55 14.649C9.5565 14.298 10.3035 13.5 10.8765 12.654C11.1023 12.9667 11.322 13.284 11.5395 13.6035C10.6485 14.6888 9.4125 15.621 7.9425 15.75H7.34025C5.48775 15.6255 3.8775 14.103 3.75 12.3045V11.7158C3.87 9.921 5.46 8.3805 7.314 8.25ZM16.074 8.25H16.6365C18.5062 8.36775 20.0963 9.921 20.25 11.7195V12.642C18.7072 12.6555 17.163 12.6465 15.6202 12.648C15.6217 12.378 15.6217 12.1102 15.6202 11.8402C16.8397 11.8372 18.0578 11.8455 19.275 11.8372C19.1888 11.3602 19.077 10.872 18.7845 10.4677C18.072 9.41475 16.5653 8.98425 15.3608 9.44025C14.4008 9.78525 13.6777 10.5397 13.1205 11.3452C12.906 11.0475 12.693 10.7452 12.4867 10.4407C13.3665 9.33975 14.5942 8.38725 16.074 8.25Z" fill="#DE3F6B"/>
</svg>

<svg width="24" height="24" viewBox="0 0 24 24" fill="none"><path fill="#de3f6b" d="M7.314 8.25h.678c1.06.1 2.04.616 2.765 1.358 1.507 1.529 2.335 3.686 4.253 4.824 1.386.823 3.324.15 4.005-1.24q.522-.008 1.042-.005c-.477 1.413-1.866 2.427-3.386 2.563h-.56c-.935-.075-1.844-.423-2.552-1.024-1.027-.843-1.687-1.999-2.486-3.028-.687-.91-1.388-1.932-2.524-2.346-1.405-.509-3.12.288-3.633 1.64-.45 1.115-.084 2.497.923 3.21.754.565 1.805.775 2.711.447 1.006-.351 1.753-1.149 2.326-1.995q.338.47.664.95c-.891 1.085-2.127 2.017-3.597 2.146H7.34c-1.852-.124-3.462-1.647-3.59-3.445v-.59C3.87 9.922 5.46 8.38 7.314 8.25m8.76 0h.563c1.87.118 3.46 1.671 3.613 3.47v.922c-1.543.014-3.087.005-4.63.006q.003-.404 0-.808c1.22-.003 2.438.005 3.655-.003-.086-.477-.198-.965-.49-1.37-.713-1.052-2.22-1.483-3.424-1.027-.96.345-1.683 1.1-2.24 1.905q-.324-.447-.634-.904c.88-1.101 2.107-2.054 3.587-2.191"/></svg>
